material/.icons/material/emoticon-devil.svg

<svg xmlns="http://www.w3.org/2000/svg" viewBox="0 0 24 24"><path d="M22.5 2.09c-.9.91-2.37 1.64-4.19 2.16A9.92 9.92 0 0012 2c-2.39 0-4.59.84-6.31 2.25C3.87 3.73 2.4 3 1.5 2.09c.03 1.63.85 3.12 2.22 4.31A9.89 9.89 0 002 12a10 10 0 0010 10 10 10 0 0010-10c0-2.08-.63-4-1.72-5.6 1.37-1.19 2.19-2.68 2.22-4.31M7.5 8.5l3 1.5c0 .8-.7 1.5-1.5 1.5s-1.5-.7-1.5-1.5V8.5m4.5 8.73c-1.75 0-3.29-.73-4.19-1.81L9.23 14c.45.72 1.52 1.23 2.77 1.23s2.32-.51 2.77-1.23l1.42 1.42c-.9 1.08-2.44 1.81-4.19 1.81M16.5 10c0 .8-.7 1.5-1.5 1.5s-1.5-.7-1.5-1.5l3-1.5V10z"/></svg>

<?xml version="1.0" encoding="UTF-8"?><!DOCTYPE svg PUBLIC "-//W3C//DTD SVG 1.1//EN" "http://www.w3.org/Graphics/SVG/1.1/DTD/svg11.dtd"><svg xmlns="http://www.w3.org/2000/svg" xmlns:xlink="http://www.w3.org/1999/xlink" version="1.1" id="mdi-emoticon-devil" width="24" height="24" viewBox="0 0 24 24"><path d="M22.5,2.09C21.6,3 20.13,3.73 18.31,4.25C16.59,2.84 14.39,2 12,2C9.61,2 7.41,2.84 5.69,4.25C3.87,3.73 2.4,3 1.5,2.09C1.53,3.72 2.35,5.21 3.72,6.4C2.63,8 2,9.92 2,12A10,10 0 0,0 12,22A10,10 0 0,0 22,12C22,9.92 21.37,8 20.28,6.4C21.65,5.21 22.47,3.72 22.5,2.09M7.5,8.5L10.5,10C10.5,10.8 9.8,11.5 9,11.5C8.2,11.5 7.5,10.8 7.5,10V8.5M12,17.23C10.25,17.23 8.71,16.5 7.81,15.42L9.23,14C9.68,14.72 10.75,15.23 12,15.23C13.25,15.23 14.32,14.72 14.77,14L16.19,15.42C15.29,16.5 13.75,17.23 12,17.23M16.5,10C16.5,10.8 15.8,11.5 15,11.5C14.2,11.5 13.5,10.8 13.5,10L16.5,8.5V10Z" /></svg>
